X: 34706
T: Road To Garrison, The
R: reel
M: 4/4
K: Dmajor
|:A3B ADFA|BdAF EDFE|DA,~A,2 DFAF|GBAG FDDF|
A2^GB ADFA|BdAF EDFE|DB,~B,2 A,2 dB|AFEG FDD2:|
|:d3f af~f2|afbf afef|defd Adfa|baaf feeg|
~f3g af~f2|gfeg fedB|ABde fded|dBAG FDD2:|

